X:2558
T:Seven Stars
T:The Moon And Seven Stars
C:anon.
O:England
Z:C.G.P
F:http://abc.musicaviva.com/tunes/england/seven-stars.abc
%Posted at abcusers Jan 2nd 2001 by Johnny Adams.
M:6/8
L:1/8
K:D
d2A A2F|GAB A2z|Bcd efg|fed cBA|d2A A2F|
GAB A2z|Bcd efg|Adc d3::e2A A2f|efg f3|efg fed|
cdB A2A|BGB AFA|BGB A2A|Bcd efg|Adcd3:|
W:
W:
W:  From Musica Viva - http://www.musicaviva.com
W:  the Internet center for free sheet music downloads.
